assets/images/simple-illustrations/simple-illustration__encryption-passkeys.svg

<svg width="204" height="204" viewBox="0 0 204 204" fill="none" xmlns="http://www.w3.org/2000/svg">
<mask id="path-1-inside-1_957_18520" fill="white">
<path d="M84.4917 108C91.4605 108 98.4295 109.202 104.935 111.396C104.725 111.592 104.516 111.793 104.311 111.998C94.3528 121.956 94.353 138.102 104.311 148.061C105.155 148.905 106.047 149.678 106.977 150.381L106.978 162H45.5005C35.9462 162 30.5005 159 30.5005 150C30.5005 126 57.5009 108 84.4917 108ZM84.5005 54C97.7553 54 108.5 64.7452 108.5 78C108.5 91.2548 97.7553 102 84.5005 102C71.2457 102 60.5005 91.2548 60.5005 78C60.5005 64.7452 71.2457 54 84.5005 54Z"/>
</mask>
<path d="M84.4917 108C91.4605 108 98.4295 109.202 104.935 111.396C104.725 111.592 104.516 111.793 104.311 111.998C94.3528 121.956 94.353 138.102 104.311 148.061C105.155 148.905 106.047 149.678 106.977 150.381L106.978 162H45.5005C35.9462 162 30.5005 159 30.5005 150C30.5005 126 57.5009 108 84.4917 108ZM84.5005 54C97.7553 54 108.5 64.7452 108.5 78C108.5 91.2548 97.7553 102 84.5005 102C71.2457 102 60.5005 91.2548 60.5005 78C60.5005 64.7452 71.2457 54 84.5005 54Z" fill="#03D47C"/>
<path d="M84.4917 108L84.4917 107H84.4917V108ZM104.935 111.396L105.618 112.126L106.84 110.983L105.255 110.448L104.935 111.396ZM104.311 111.998L103.604 111.291V111.291L104.311 111.998ZM104.311 148.061L103.604 148.768L103.604 148.768L104.311 148.061ZM106.977 150.381L107.977 150.381L107.977 149.883L107.58 149.583L106.977 150.381ZM106.978 162V163H107.978L107.978 162L106.978 162ZM84.5005 54V53V53V54ZM84.5005 102V103V103V102ZM84.4917 108L84.4917 109C91.3471 109 98.2084 110.183 104.616 112.343L104.935 111.396L105.255 110.448C98.6507 108.221 91.574 107 84.4917 107L84.4917 108ZM104.935 111.396L104.252 110.665C104.035 110.868 103.818 111.077 103.604 111.291L104.311 111.998L105.018 112.705C105.214 112.509 105.415 112.316 105.618 112.126L104.935 111.396ZM104.311 111.998L103.604 111.291C93.2552 121.64 93.2554 138.419 103.604 148.768L104.311 148.061L105.018 147.353C95.4506 137.786 95.4504 122.273 105.018 112.705L104.311 111.998ZM104.311 148.061L103.604 148.768C104.481 149.645 105.408 150.448 106.374 151.178L106.977 150.381L107.58 149.583C106.686 148.907 105.829 148.164 105.018 147.353L104.311 148.061ZM106.977 150.381L105.977 150.381L105.978 162L106.978 162L107.978 162L107.977 150.381L106.977 150.381ZM106.978 162V161H45.5005V162V163H106.978V162ZM45.5005 162V161C40.7878 161 37.3034 160.252 35.0092 158.569C32.7843 156.936 31.5005 154.286 31.5005 150H30.5005H29.5005C29.5005 154.714 30.9396 158.064 33.8261 160.181C36.6433 162.248 40.6589 163 45.5005 163V162ZM30.5005 150H31.5005C31.5005 138.403 38.0223 128.173 47.9698 120.804C57.9174 113.434 71.2055 109 84.4917 109V108V107C70.7871 107 57.0796 111.566 46.7793 119.196C36.4789 126.827 29.5005 137.597 29.5005 150H30.5005ZM84.5005 54V55C97.203 55 107.5 65.2975 107.5 78H108.5H109.5C109.5 64.1929 98.3076 53 84.5005 53V54ZM108.5 78H107.5C107.5 90.7025 97.203 101 84.5005 101V102V103C98.3076 103 109.5 91.8071 109.5 78H108.5ZM84.5005 102V101C71.7979 101 61.5005 90.7025 61.5005 78H60.5005H59.5005C59.5005 91.8071 70.6934 103 84.5005 103V102ZM60.5005 78H61.5005C61.5005 65.2975 71.7979 55 84.5005 55V54V53C70.6934 53 59.5005 64.1929 59.5005 78H60.5005Z" fill="#002140" mask="url(#path-1-inside-1_957_18520)"/>
<path d="M111.029 118.716C117.277 112.468 127.408 112.468 133.656 118.716C139.905 124.964 139.905 135.095 133.656 141.343C131.209 143.791 128.168 145.279 124.997 145.81L124.579 145.879V155.728H132.259V163.728H124.579V168.45H132.448L132.449 176.199H116.478V144.924L116.171 144.797C114.302 144.017 112.551 142.865 111.029 141.343C104.78 135.095 104.78 124.964 111.029 118.716ZM118.807 122.251C116.854 124.204 116.854 127.37 118.807 129.323C120.76 131.275 123.925 131.275 125.878 129.323C127.831 127.37 127.831 124.204 125.878 122.251C123.925 120.299 120.76 120.299 118.807 122.251Z" fill="#FED607" stroke="#002140"/>
<path d="M123.327 28H122.305C120.204 28 118.5 29.7295 118.5 31.863V44.5208C118.5 46.6543 120.204 48.3838 122.305 48.3838H123.327C125.428 48.3838 127.131 46.6543 127.131 44.5208V31.863C127.131 29.7295 125.428 28 123.327 28Z" stroke="#4ED7DE" stroke-width="3" stroke-linecap="round" stroke-linejoin="round"/>
<path d="M118.636 44.9177L126.876 30.9468" stroke="#4ED7DE" stroke-width="3" stroke-linecap="round" stroke-linejoin="round"/>
<path d="M141.01 28H139.987C137.886 28 136.183 29.7295 136.183 31.863V44.5208C136.183 46.6543 137.886 48.3838 139.987 48.3838H141.01C143.111 48.3838 144.814 46.6543 144.814 44.5208V31.863C144.814 29.7295 143.111 28 141.01 28Z" stroke="#4ED7DE" stroke-width="3" stroke-linecap="round" stroke-linejoin="round"/>
<path d="M136.318 44.9177L144.558 30.9468" stroke="#4ED7DE" stroke-width="3" stroke-linecap="round" stroke-linejoin="round"/>
<path d="M123.327 55.957H122.305C120.204 55.957 118.5 57.6866 118.5 59.82V72.4779C118.5 74.6113 120.204 76.3409 122.305 76.3409H123.327C125.428 76.3409 127.131 74.6113 127.131 72.4779V59.82C127.131 57.6866 125.428 55.957 123.327 55.957Z" stroke="#4ED7DE" stroke-width="3" stroke-linecap="round" stroke-linejoin="round"/>
<path d="M118.636 72.8747L126.876 58.9038" stroke="#4ED7DE" stroke-width="3" stroke-linecap="round" stroke-linejoin="round"/>
<path d="M158.692 55.5601H157.669C155.568 55.5601 153.865 57.2896 153.865 59.4231V72.0809C153.865 74.2144 155.568 75.9439 157.669 75.9439H158.692C160.793 75.9439 162.496 74.2144 162.496 72.0809V59.4231C162.496 57.2896 160.793 55.5601 158.692 55.5601Z" stroke="#4ED7DE" stroke-width="3" stroke-linecap="round" stroke-linejoin="round"/>
<path d="M153.986 72.4781L162.226 58.5225" stroke="#4ED7DE" stroke-width="3" stroke-linecap="round" stroke-linejoin="round"/>
<path d="M176.39 55.5601H175.367C173.266 55.5601 171.563 57.2896 171.563 59.4231V72.0809C171.563 74.2144 173.266 75.9439 175.367 75.9439H176.39C178.491 75.9439 180.194 74.2144 180.194 72.0809V59.4231C180.194 57.2896 178.491 55.5601 176.39 55.5601Z" stroke="#4ED7DE" stroke-width="3" stroke-linecap="round" stroke-linejoin="round"/>
<path d="M171.698 72.4781L179.938 58.5225" stroke="#4ED7DE" stroke-width="3" stroke-linecap="round" stroke-linejoin="round"/>
<path d="M140.949 82.8149H139.927C137.826 82.8149 136.123 84.5445 136.123 86.6779V99.3358C136.123 101.469 137.826 103.199 139.927 103.199H140.949C143.05 103.199 144.753 101.469 144.753 99.3358V86.6779C144.753 84.5445 143.05 82.8149 140.949 82.8149Z" stroke="#4ED7DE" stroke-width="3" stroke-linecap="round" stroke-linejoin="round"/>
<path d="M136.243 99.7325L144.498 85.7769" stroke="#4ED7DE" stroke-width="3" stroke-linecap="round" stroke-linejoin="round"/>
<path d="M176.525 82.8149H175.502C173.401 82.8149 171.698 84.5445 171.698 86.6779V99.3358C171.698 101.469 173.401 103.199 175.502 103.199H176.525C178.626 103.199 180.329 101.469 180.329 99.3358V86.6779C180.329 84.5445 178.626 82.8149 176.525 82.8149Z" stroke="#4ED7DE" stroke-width="3" stroke-linecap="round" stroke-linejoin="round"/>
<path d="M171.833 99.7325L180.073 85.7769" stroke="#4ED7DE" stroke-width="3" stroke-linecap="round" stroke-linejoin="round"/>
<path d="M155.865 32.1531L158.812 28V48.1243" stroke="#4ED7DE" stroke-width="3" stroke-linecap="round" stroke-linejoin="round"/>
<path d="M155.143 48.124H162.496" stroke="#4ED7DE" stroke-width="3" stroke-linecap="round" stroke-linejoin="round"/>
<path d="M173.713 32.1531L176.66 28V48.1243" stroke="#4ED7DE" stroke-width="3" stroke-linecap="round" stroke-linejoin="round"/>
<path d="M172.991 48.124H180.329" stroke="#4ED7DE" stroke-width="3" stroke-linecap="round" stroke-linejoin="round"/>
<path d="M138.062 59.8509L141.01 55.6978V75.822" stroke="#4ED7DE" stroke-width="3" stroke-linecap="round" stroke-linejoin="round"/>
<path d="M137.34 75.8218H144.678" stroke="#4ED7DE" stroke-width="3" stroke-linecap="round" stroke-linejoin="round"/>
<path d="M155.745 86.5862L158.692 82.4331V102.557" stroke="#4ED7DE" stroke-width="3" stroke-linecap="round" stroke-linejoin="round"/>
<path d="M155.023 102.558H162.361" stroke="#4ED7DE" stroke-width="3" stroke-linecap="round" stroke-linejoin="round"/>
</svg>

<svg xmlns="http://www.w3.org/2000/svg" width="204" height="204" fill="none" viewBox="0 0 204 204"><mask id="a" fill="#fff"><path d="M84.492 108c6.968 0 13.938 1.202 20.443 3.396q-.316.294-.624.602c-9.958 9.958-9.958 26.104 0 36.063a26 26 0 0 0 2.666 2.32l.001 11.619H45.501c-9.555 0-15-3-15-12 0-24 27-42 53.99-42m.008-54c13.255 0 24 10.745 24 24s-10.745 24-24 24c-13.254 0-24-10.745-24-24s10.746-24 24-24"/></mask><path fill="#03d47c" d="M84.492 108c6.968 0 13.938 1.202 20.443 3.396q-.316.294-.624.602c-9.958 9.958-9.958 26.104 0 36.063a26 26 0 0 0 2.666 2.32l.001 11.619H45.501c-9.555 0-15-3-15-12 0-24 27-42 53.99-42m.008-54c13.255 0 24 10.745 24 24s-10.745 24-24 24c-13.254 0-24-10.745-24-24s10.746-24 24-24"/><path fill="#002140" d="M84.492 108v-1zm20.443 3.396.683.73 1.222-1.143-1.585-.535zm-.624.602-.707-.707zm0 36.063-.707.707zm2.666 2.32h1v-.498l-.397-.3zm.001 11.619v1h1v-1zM84.501 54v-1zm0 48v1zm-.01 6v1c6.856 0 13.717 1.183 20.125 3.343l.319-.947.32-.948C98.651 108.221 91.574 107 84.492 107zm20.444 3.396-.683-.731q-.326.305-.648.626l.707.707.707.707q.295-.294.6-.579zm-.624.602-.707-.707c-10.349 10.349-10.349 27.128 0 37.477l.707-.707.707-.708c-9.567-9.567-9.568-25.08 0-34.648zm0 36.063-.707.707a27 27 0 0 0 2.77 2.41l.603-.797.603-.798a25 25 0 0 1-2.562-2.23zm2.666 2.32h-1l.001 11.619h2l-.001-11.619zm.001 11.619v-1H45.501v2h61.477zm-61.477 0v-1c-4.713 0-8.198-.748-10.492-2.431-2.225-1.633-3.509-4.283-3.509-8.569h-2c0 4.714 1.44 8.064 4.326 10.181C36.643 162.248 40.66 163 45.501 163zm-15-12h1c0-11.597 6.521-21.827 16.469-29.196C57.917 113.434 71.206 109 84.492 109v-2c-13.705 0-27.412 4.566-37.713 12.196C36.48 126.827 29.5 137.597 29.5 150zm54-96v1C97.203 55 107.5 65.298 107.5 78h2c0-13.807-11.192-25-25-25zM108.5 78h-1c0 12.703-10.297 23-23 23v2c13.808 0 25-11.193 25-25zm-24 24v-1c-12.702 0-23-10.297-23-23h-2c0 13.807 11.193 25 25 25zm-24-24h1c0-12.702 10.298-23 23-23v-2c-13.807 0-25 11.193-25 25z" mask="url(#a)"/><path fill="#fed607" stroke="#002140" d="M111.029 118.716c6.248-6.248 16.379-6.248 22.627 0 6.249 6.248 6.249 16.379 0 22.627a15.92 15.92 0 0 1-8.659 4.467l-.418.069v9.849h7.68v8h-7.68v4.722h7.869l.001 7.749h-15.971v-31.275l-.307-.127a16 16 0 0 1-5.142-3.454c-6.249-6.248-6.249-16.379 0-22.627Zm7.778 3.535a5 5 0 1 0 7.071 7.072 5 5 0 0 0-7.071-7.072Z"/><path stroke="#4ed7de" stroke-linecap="round" stroke-linejoin="round" stroke-width="3" d="M123.327 28h-1.022c-2.101 0-3.805 1.73-3.805 3.863v12.658c0 2.133 1.704 3.863 3.805 3.863h1.022c2.101 0 3.804-1.73 3.804-3.863V31.863c0-2.133-1.703-3.863-3.804-3.863m-4.691 16.918 8.24-13.971M141.01 28h-1.023c-2.101 0-3.804 1.73-3.804 3.863v12.658c0 2.133 1.703 3.863 3.804 3.863h1.023c2.101 0 3.804-1.73 3.804-3.863V31.863c0-2.133-1.703-3.863-3.804-3.863m-4.692 16.918 8.24-13.971m-21.231 25.01h-1.022c-2.101 0-3.805 1.73-3.805 3.863v12.658c0 2.133 1.704 3.863 3.805 3.863h1.022c2.101 0 3.804-1.73 3.804-3.863V59.82c0-2.133-1.703-3.863-3.804-3.863m-4.691 16.918 8.24-13.971m31.816-3.344h-1.023c-2.101 0-3.804 1.73-3.804 3.863v12.658c0 2.133 1.703 3.863 3.804 3.863h1.023c2.101 0 3.804-1.73 3.804-3.863V59.423c0-2.133-1.703-3.863-3.804-3.863m-4.706 16.918 8.24-13.955m14.164-2.963h-1.023c-2.101 0-3.804 1.73-3.804 3.863v12.658c0 2.133 1.703 3.863 3.804 3.863h1.023c2.101 0 3.804-1.73 3.804-3.863V59.423c0-2.133-1.703-3.863-3.804-3.863m-4.692 16.918 8.24-13.955m-38.989 24.292h-1.022c-2.101 0-3.804 1.73-3.804 3.863v12.658c0 2.133 1.703 3.863 3.804 3.863h1.022c2.101 0 3.804-1.73 3.804-3.863V86.678c0-2.133-1.703-3.863-3.804-3.863m-4.706 16.918 8.255-13.956m32.027-2.962h-1.023c-2.101 0-3.804 1.73-3.804 3.863v12.658c0 2.133 1.703 3.863 3.804 3.863h1.023c2.101 0 3.804-1.73 3.804-3.863V86.678c0-2.133-1.703-3.863-3.804-3.863m-4.692 16.918 8.24-13.956m-24.208-53.624L158.812 28v20.124m-3.669 0h7.353m11.217-15.971L176.66 28v20.124m-3.669 0h7.338M138.062 59.85l2.948-4.152v20.124m-3.67 0h7.338m11.067 10.764 2.947-4.153v20.124m-3.669.001h7.338"/></svg>
